X:303
T: ICH HATTE MEIN FEINSLIEBCHEN
N: Z0301
O: Europa, Mitteleuropa, Deutschland
R: Lyrisches Lied, Romanze, verlassene Liebe
M: 3/4
L: 1/16
K: G
D2 | G3Bd4B4 | c4A6
G2 | F3Ac4A4 | d2B2G6
D2 | G3GB4d4 | g8-g2
e2 | d3cB4A4 | G8z2

@@@ Tune index: 10061
